files/icons/hy.svg

<?xml version="1.0" encoding="UTF-8"?>
<svg viewBox="0 0 1020 1020" version="1.1" xmlns="http://www.w3.org/2000/svg" xmlns:xlink="http://www.w3.org/1999/xlink">
    <title>hybrix-symbol-gradient</title>
    <g stroke="none" stroke-width="1" fill="none" fill-rule="evenodd">
        <g fill="#000000">
            <path d="M748.630315,761.723098 L748.32101,699.965107 C722.545538,710.790798 694.295621,716.770704 664.602277,716.976907 C550.05608,717.595518 455.202343,630.268275 444.067339,518.5059 L580.574239,517.784188 C590.162714,554.900843 623.980133,582.325928 663.983666,582.119724 C702.234466,581.913521 734.608459,556.550473 745.331055,521.805159 L747.393093,508.505024 L747.393093,502.009609 L747.393093,498.710351 L747.289991,472.006979 L746.258972,275.494906 L881.425547,274.773194 L882.456566,471.285266 L882.662769,516.23766 L883.281381,516.23766 C883.075177,518.196595 882.868973,520.155529 882.662769,522.011362 L883.899992,761.001385 L884.415501,856.37057 C969.165253,764.816152 1020.6131,642.124985 1019.99448,507.474005 C1018.55106,225.799828 789.046255,-1.43658685 507.371898,0.00683865568 C421.384924,0.419245943 340.449942,22.1737303 269.515844,60.1152007 L270.443761,233.326261 L270.753066,292.919114 C296.63164,281.990321 325.087761,275.907314 354.884207,275.804212 C468.914894,275.185601 563.459325,361.688029 575.316042,472.728691 L438.602939,473.450404 C428.498954,437.158563 395.093943,410.455191 355.60592,410.661395 C316.117897,410.867598 282.919089,437.880276 273.227512,474.275219 C273.227512,474.275219 271.371678,494.070769 271.990289,499.741369 C271.990289,500.153776 271.990289,500.463081 271.784085,500.772387 L271.887187,519.124511 L272.918206,721.616489 L137.957835,722.338202 L136.926816,519.846224 L136.720612,474.89383 L136.411307,474.89383 C136.514408,473.965913 136.61751,472.934895 136.720612,472.006979 L135.48339,233.944872 L135.174084,164.041837 C50.6305361,255.596255 -0.714203961,378.184321 0.00750925229,512.525995 C1.45093568,794.200172 230.955738,1021.43659 512.630095,1019.99316 C598.410865,1019.58075 679.139643,997.929371 749.97064,960.194105 L748.630315,761.723098 Z"></path>
        </g>
    </g>
</svg>

<?xml version="1.0" encoding="UTF-8" standalone="no"?>
<svg
   xmlns:dc="http://purl.org/dc/elements/1.1/"
   xmlns:cc="http://creativecommons.org/ns#"
   xmlns:rdf="http://www.w3.org/1999/02/22-rdf-syntax-ns#"
   xmlns:svg="http://www.w3.org/2000/svg"
   xmlns="http://www.w3.org/2000/svg"
   height="32"
   width="32"
   id="svg10"
   version="1.1"
   viewBox="0 0 32 32">
  <metadata
     id="metadata16">
    <rdf:RDF>
      <cc:Work
         rdf:about="">
        <dc:format>image/svg+xml</dc:format>
        <dc:type
           rdf:resource="http://purl.org/dc/dcmitype/StillImage" />
        <dc:title>hybrix-symbol-gradient</dc:title>
      </cc:Work>
    </rdf:RDF>
  </metadata>
  <defs
     id="defs14" />
  <title
     id="title2">hybrix-symbol-gradient</title>
  <g
     transform="matrix(0.03137255,0,0,0.03137255,0,3.7714774e-5)"
     style="fill:none;fill-rule:evenodd;stroke:none;stroke-width:1"
     id="g8">
    <g
       style="fill:#000000"
       id="g6">
      <path
         id="path4"
         d="m 748.63031,761.7231 -0.3093,-61.75799 c -25.77547,10.82569 -54.02539,16.80559 -83.71873,17.0118 -114.5462,0.61861 -209.39994,-86.70863 -220.53494,-198.47101 l 136.5069,-0.72171 c 9.58847,37.11665 43.40589,64.54174 83.40943,64.33553 38.2508,-0.2062 70.62479,-25.56925 81.34738,-60.31456 l 2.06204,-13.30014 v -6.49541 -3.29926 l -0.1031,-26.70337 -1.03102,-196.51207 135.16658,-0.72172 1.03102,196.51208 0.2062,44.95239 h 0.61861 c -0.2062,1.95893 -0.41241,3.91787 -0.61861,5.7737 l 1.23722,238.99003 0.51551,95.36918 C 969.16525,764.81615 1020.6131,642.12499 1019.9945,507.474 1018.5511,225.79983 789.04625,-1.4365868 507.3719,0.00683866 421.38492,0.41924594 340.44994,22.17373 269.51584,60.115201 l 0.92792,173.211059 0.30931,59.59285 c 25.87857,-10.92879 54.33469,-17.0118 84.13114,-17.1149 114.03068,-0.61861 208.57512,85.88382 220.43183,196.92448 l -136.7131,0.72171 c -10.10399,-36.29184 -43.509,-62.99521 -82.99702,-62.789 -39.48802,0.2062 -72.68683,27.21888 -82.37841,63.61382 0,0 -1.85583,19.79555 -1.23722,25.46615 0,0.41241 0,0.72171 -0.20621,1.03102 l 0.10311,18.35212 1.03102,202.49198 -134.96038,0.72171 -1.03101,-202.49198 -0.20621,-44.95239 h -0.3093 c 0.1031,-0.92792 0.2062,-1.95894 0.3093,-2.88685 l -1.23722,-238.06211 -0.30931,-69.90303 C 50.630536,255.59626 -0.71420396,378.18432 0.00750925,512.52599 1.4509357,794.20017 230.95574,1021.4366 512.63009,1019.9932 c 85.78077,-0.4125 166.50955,-22.06383 237.34055,-59.79909 z" />
    </g>
  </g>
</svg>
